X:1
T:Christ Is Born
T:Ira Bishop Wilson
T:Christ Is Born
T:Public Domain
T:Public Domain
T:Public Domain
C:Ira Bishop Wilson
Z:Public Domain
%%score ( 1 2 ) ( 3 4 )
L:1/8
M:4/4
K:Bb
V:1 treble 
V:2 treble 
V:3 bass 
V:4 bass 
V:1
 [B,D]>[CE] | [DF]2 [Fd]2 [Ec]2 [DB]2 | [EB]2 [EA]4 [CA]>[DB] | [Ec]6 [Fd]>[Ec] | %4
w: 1.~Hark! a|might- y host is|sing- ing, Christ is|born! Christ is|
w: 2.~Spread the|news to ev- ery|na- tion, Christ is|born! Christ is|
w: 3.~Haste, ye|peo- ple, haste to|greet Him, Christ is|born! Christ is|
 [DB]6 [B,D]>[CE] | [DF]2 [Fd]2 [Ec]2 [DB]2 | [FA]2 [EG]4 [FA]>[EG] | [DF]4 [Ec]4 | [DB]6 F>^F | %9
w: born! Thro’ the|sky glad strains are|wing- ing— Christ the|King is|born! Let us|
w: born! Fill the|air with ju- bi-|la- tion— Christ the|King is|born! Hope in|
w: born! Come with|out- stretched arms to|meet Him— Christ the|King is|born! Ye who|
 (E2 E2 G>)G A>d | [DFc]2 ([DF]2 [DF]2) F>G | [EA]3 [CE] [EA]2 [EG]2 | [DG]2 (D2 D2) =F>^F | %13
w: join * * the swell- ing|the an- * gels *|ing o’er us; Peace|and glad- * ness are|
w: hope- * * less hearts is|long bowed * with *|are sing- ing; Joy|to all * His birth|
w: long * * in vain have|by sin * or *|row riv- en, Yours|the gift * which God|
 (E2 E2 G>)G A>d | [DFc]2 ([DF]2 [DF]2) [DB]>[DB] | (C2 F2) [=EG]4 | (F2 =E2 _E2 (3ABc) || %17
w: fore * * us— Christ the||||
w: bring- * * ing— Christ the|Christ is * born! Christ|born! * Born|gain * * * * *|
w: giv- * * en— Christ the||||
"^Refrain" [DFBd]2 [DFBd]2 ([DFB]2 [DFB]2) | [DFc]2 [DFc]2 ([DF]2 [DF]2) | D2 (z A) [Dc]2 [DB]2 | %20
w: |||
w: men this morn; *|ev- er praise *|O * mag- ni-|
w: |||
 [EB]2 [EA]2 [EA]FAc | !>![Fc]2 !>![Fe]3 [FA][FB][Fc] | !>![Fd]2 !>![Fd]4 [Fd]2 | %23
w: |||
w: * For Christ the King is|born! * * * *||
w: |||
 [=Ed]3 [Ec] [Fd]3 [_Ec] | [DB]6 |] %25
w: ||
w: ||
w: ||
V:2
 x2 | x8 | x8 | x8 | x8 | x8 | x8 | x8 | x8 | G4- E2 E2 | B4 x4 | x8 | x2 ^F4 x2 | G4- E2 E2 | %14
w: |||||||||cho- rus Of|sing-||be-|King is born!|
w: |||||||||spring- ing, Souls|grief||is|King is born!|
w: |||||||||striv- en, Hearts|sor-||has|King is born!|
 B4 x4 | A4 x4 | c6 x2 || d4 x4 | x2 c4 x2 | B3 D2 x3 | x8 | x8 | x8 | x8 | x6 |] %25
w: |||||||||||
w: is|a-|for|For-|Him,|fy Him,||||||
w: |||||||||||
V:3
 [B,,F,]>[B,,F,] | [B,,B,]2 [B,,B,]2 [B,,B,]2 [B,,F,]2 | [C,F,]2 [C,F,]4 z2 | %3
w: ~ ~|~ ~ ~ ~|~ ~|
 z2 [F,A,]>[F,A,] [F,A,]2 z2 | z2 [B,,F,]>[B,,F,] [B,,F,]2 [B,,F,]>[B,,F,] | %5
w: Christ is born!|Christ is born! ~ ~|
 [B,,B,]2 [B,,B,]2 [B,,B,]2 [B,,B,]2 | [E,B,]2 [E,B,]4 z2 | ([F,B,]2 [F,B,]2) ([F,A,]2 F,2) | %8
w: ~ ~ ~ ~|~ ~|~ * ~ *|
 [B,,F,]6 z2 | C,2 F,2 F,,2 F,2 | B,,2 F,2 F,,2 F,2 | C,2 F,2 F,,2 F,2 | B,,2 F,2 B,2 z2 | %13
w: ~|~ ~ ~ ~|~ ~ ~ ~|~ ~ ~ ~|~ ~ ~|
 C,2 F,2 F,,2 F,2 | B,,2 F,2 B,2 z2 | [B,,F,]2 [C,A,]2 [C,C]2 [B,C]2 | [A,C]2 [G,B,]2 [F,A,]2 z2 || %17
w: ~ ~ ~ ~|~ ~ Christ|the King, the King|is born! *|
 [B,,F,]2 [F,,F,]2 [B,,F,]2 [F,,F,]2 | [B,,F,]2 [F,,F,]2 [B,,F,]2 [F,,F,]2 | %19
w: ||
 [B,,F,]2 [F,,F,]2 [B,,F,]2 [F,,F,]2 | [C,F,]2 [F,,F,]2 [C,F,] z3 | %21
w: ||
 !>![F,A,]2 !>![F,A,]3 [E,C][D,B,][C,A,] | !>![B,,B,]2 !>!B,4 [G,=B,]2 | %23
w: ||
 [C,B,]3 [C,B,] [F,A,]3 F, | [B,,F,]6 |] %25
w: ||
V:4
 x2 | x8 | x8 | x8 | x8 | x8 | x8 | x6 F,2 | x8 | x8 | x8 | x8 | x8 | x8 | x8 | x8 | x8 || x8 | %18
w: |||||||~|||||||||||
 x8 | x8 | x8 | x8 | x2 =B,4 x2 | x7 F, | x6 |] %25
w: |||||||

